public/breathvizai.svg

<svg xmlns="http://www.w3.org/2000/svg" width="1100" height="1100" fill="none" viewBox="0 0 1100 1100"><circle cx="550" cy="550" r="530" stroke="#023a6a" stroke-width="40"/><path fill="#023a6a" d="M507.752 482C495.089 558.649 430.4 617 352.5 617s-142.589-58.351-155.252-135h40.704c12.063 55.114 59.607 95 114.548 95s102.485-39.886 114.548-95z"/><ellipse cx="425.5" cy="231.5" fill="#023a6a" rx="30.5" ry="31.5"/><ellipse cx="488.5" cy="479" fill="#023a6a" rx="19.5" ry="20"/><path fill="#023a6a" d="M446.782 223.086C492.991 224.431 533 242.844 533 320c0 68.189-23.331 171.865-60.093 201.701l-2.375-27.145c7.595-10.991 14.868-26.723 21.223-45.756C505.242 408.403 513 358.043 513 320c0-36.722-9.828-54.246-20.632-63.314-10.197-8.559-24.84-12.693-43.83-13.524z"/><path fill="#023a6a" d="m470.112 473.056 5 5v8l-8.067-4.034z"/><ellipse cx="30.5" cy="31.5" fill="#023a6a" rx="30.5" ry="31.5" transform="matrix(-1 0 0 1 310 200)"/><ellipse cx="19.5" cy="20" fill="#023a6a" rx="19.5" ry="20" transform="matrix(-1 0 0 1 236 459)"/><path fill="#023a6a" d="M258.218 223.086C212.009 224.431 172 242.844 172 320c0 68.189 23.331 171.865 60.093 201.701l2.375-27.145c-7.595-10.991-14.868-26.723-21.223-45.756C199.758 408.403 192 358.043 192 320c0-36.722 9.828-54.246 20.632-63.314 10.197-8.559 24.84-12.693 43.83-13.524z"/><path fill="#023a6a" d="m234.888 473.056-5 5v8l8.067-4.034zM370.131 602a649 649 0 0 0-.131 13c0 105.636 26.026 177.513 67.725 222.819C479.069 882.74 539.947 906 619.5 906c67.378 0 124.979-28.532 168.64-79h38.306C776.433 895.286 705.022 936 619.5 936 448.568 936 340 835.362 340 615q0-6.488.125-13z"/><circle cx="806.5" cy="769.5" r="53.5" stroke="#023a6a" stroke-width="30"/><path stroke="#023a6a" stroke-linecap="round" stroke-linejoin="round" stroke-width="30" d="m489.9 583.101 54.598.001 31.5-83.602 64 254.5L718 304.5l62 328 39.5-111 31.5 57.804h201.9"/></svg>

<svg width="1100" height="1100" viewBox="0 0 1100 1100" fill="none" xmlns="http://www.w3.org/2000/svg">
<circle cx="550" cy="550" r="530" stroke="#023A6A" stroke-width="40"/>
<path d="M507.752 482C495.089 558.649 430.4 617 352.5 617C274.6 617 209.911 558.649 197.248 482H237.952C250.015 537.114 297.559 577 352.5 577C407.441 577 454.985 537.114 467.048 482H507.752Z" fill="#023A6A"/>
<ellipse cx="425.5" cy="231.5" rx="30.5" ry="31.5" fill="#023A6A"/>
<ellipse cx="488.5" cy="479" rx="19.5" ry="20" fill="#023A6A"/>
<path d="M446.782 223.086C492.991 224.431 533 242.844 533 320C533 388.189 509.669 491.865 472.907 521.701L470.532 494.556C478.127 483.565 485.4 467.833 491.755 448.8C505.242 408.403 513 358.043 513 320C513 283.278 503.172 265.754 492.368 256.686C482.171 248.127 467.528 243.993 448.538 243.162L446.782 223.086Z" fill="#023A6A"/>
<path d="M470.112 473.056L475.112 478.056V486.056L467.045 482.022L470.112 473.056Z" fill="#023A6A"/>
<ellipse cx="30.5" cy="31.5" rx="30.5" ry="31.5" transform="matrix(-1 0 0 1 310 200)" fill="#023A6A"/>
<ellipse cx="19.5" cy="20" rx="19.5" ry="20" transform="matrix(-1 0 0 1 236 459)" fill="#023A6A"/>
<path d="M258.218 223.086C212.009 224.431 172 242.844 172 320C172 388.189 195.331 491.865 232.093 521.701L234.468 494.556C226.873 483.565 219.6 467.833 213.245 448.8C199.758 408.403 192 358.043 192 320C192 283.278 201.828 265.754 212.632 256.686C222.829 248.127 237.472 243.993 256.462 243.162L258.218 223.086Z" fill="#023A6A"/>
<path d="M234.888 473.056L229.888 478.056V486.056L237.955 482.022L234.888 473.056Z" fill="#023A6A"/>
<path d="M370.131 602C370.044 606.341 370 610.675 370 615C370 720.636 396.026 792.513 437.725 837.819C479.069 882.74 539.947 906 619.5 906C686.878 906 744.479 877.468 788.14 827H826.446C776.433 895.286 705.022 936 619.5 936C448.568 936 340 835.362 340 615C340 610.675 340.042 606.341 340.125 602H370.131Z" fill="#023A6A"/>
<circle cx="806.5" cy="769.5" r="53.5" stroke="#023A6A" stroke-width="30"/>
<path d="M489.9 583.101L544.498 583.102L575.998 499.5L639.998 754L718 304.5L780 632.5L819.5 521.5L851 579.304L1052.9 579.304" stroke="#023A6A" stroke-width="30" stroke-linecap="round" stroke-linejoin="round"/>
</svg>
